!!!!SEGMENT: pl-kozmzk--mzk-m-31--010_szymanowska-maria--preludium-es-moll.krn
!!!cenid: 18xx:446
!!!COM: Szymanowska, Maria
!!!COM-rismID: pe140138
!!!CDT: 1789/12/14-1831/07/25
!!!CNT: Polish
!!!GTL: Vingt Exercices et Préludes pour le Pianoforte
!!!OTL: Preludium es-moll
!!!PDT: 1819
!!!AGN: Secular; Prelude
!!!SMS-siglum: PL-KOZmzk
!!!SMS-shelfmark: mzk/m/31
!!!SMS-shelfwork: 010 G
!!!SMS-variant:
!!!SMS-altvar:
!!!NIFC-rismSourceID: 1001025333
!!!NIFC-islandoraID: pl-kozmzk:6325
!!!URL-pdf-islandora: https://repozytorium.nifc.pl/islandora/object/pl-kozmzk%3A6325/datastream/PDF/view
!!!URL-scan: https://polish.musicsources.pl/pl/lokalizacje/galeria/rekopisy/462 @EN{Scan on Polish Music Herritage in Open Access Website} @PL{Skany w portalu Dziedzictwo Muzyki Polskiej w otwartym dostępie}
!!!ONB-nifc:
!!!AIN: 1 empty
!!!key:
**kern	**kern	**dynam
*part1	*part1	*part1
*staff2	*staff1	*
*Iempty	*Iempty	*
*I"	*	*
*I'	*	*
*clefF4	*clefG2	*
*k[b-e-a-d-g-c-]	*k[b-e-a-d-g-c-]	*
*e-:	*e-:	*
*M2/4	*M2/4	*
=1	=1	=1
!	!LO:TX:a:i:t=No 10.	!
!	!LO:TX:a:i:t=Commodo.	!LO:DY:a
*	*	*below
16EE-/LL	2r	p
16FF/	.	.
16GG-/	.	.
16AA-/JJ	.	.
!LO:TX:a:i:t=ben      marcato.	!	!
16BB-/LL	.	.
16Cn/	.	.
16Dn/	.	.
16E-/JJ	.	.
=2	=2	=2
16F\LL	2r	.
16G-\	.	.
16A-\	.	.
16B-\JJ	.	.
16cn\LL	.	.
16dn\	.	.
16e-\	.	.
16f\JJ	.	.
=3	=3	=3
!LO:N:vis=2	!	!
8E-\L	16e-/LL	.
.	16f/	.
!LO:TX:a:t=problem:extended text	!	!LO:HP:t=[crescendo]:ext=[cd]
8G-\ 8B- 8e-	16g-/	<
.	16a-/JJ	.
8G-\ 8B- 8e-	16b-/LL	.
.	16ccn/	.
8G-\J 8B- 8e-	16ddn/	.
.	16ee-/JJ	.
=4	=4	=4
!LO:N:vis=2	!	!
8D-\L	16ff\LL	.
.	16gg-\	.
8G-\ 8B- 8e-	16aa-\	.
.	16bb-\JJ	.
8G-\ 8B- 8e-	16cccn\LL	.
.	16dddn\	.
8G-\J 8B- 8e-	16eee-\	.
.	16fff\JJ	.
!!LO:LB:g=original
=5	=5	=5
8C-`/	16ggg-`\LL	.
.	(16dddn\	.
8G-\L 8c- 8e-	16eee-\)	.
.	16aan`\JJ	.
8G-\J 8c- 8e-	(16bb-^<\LL	.
.	16gg-\	.
8r	16ff\	.
.	16ee-\JJ)	.
=6	=6	=6
8BB-`/	16ggg-`\LL	.
.	(16dddn\	.
8G-\L 8B- 8e-	16eee-\)	.
.	16aan`\JJ	.
8G-\J 8B- 8e-	(16bb-^<\LL	.
.	16gg-\	.
8r	16ff\	.
.	16ee-\JJ)	.
=7	=7	=7
!LO:TX:t=P:problem=mixed beam	!	!
8AA-/L	16r	.
.	16cc-\LL	.
8A-\J 8c- 8f	16cc-^\ 16gg-	.
.	16ff\JJ	.
!LO:TX:t=P:problem=mixed beam	!	!
8BB-/L	16r	.
.	16dd-\LL	.
8B-\J 8d- 8gn	16dd-^\ 16aa-	.
.	16ggn\JJ	.
=8	=8	=8
!LO:TX:t=P:problem=mixed beam	!	!
8C-/L	16r	.
.	16ee-\LL	.
8c-\J 8e- 8a-	16ee-^\ 16bb-	.
.	16aa-\JJ	.
!LO:TX:t=P:problem=mixed beam	!	!
8C-/L	16r	.
.	16ee-\LL	f
8c-\J 8e- 8an	16ee-^\ 16ggg-	.
.	16aan\JJ	.
=9	=9	=9
8BB-/	16r	.
.	16ddn\LL	.
*clefG2	*	*
8b-/L	16dd^\ 16ff 16ccc-	.
.	16bb-\JJ	.
8B-/	16r	.
.	16b-\LL	.
8b-/J	16b-^\ 16ee- 16aa-	.
.	16gg-\JJ	.
!!LO:LB:g=original
=10	=10	=10
8B-/L	16r	.
.	16a-\LL	.
8b-/J	16a-^\ 16ddn 16gg-	.
.	16ff\JJ	.
8B-/L	16r	.
.	16g-\LL	.
8b-/J	16g-^\ 16b- 16ff	.
.	16ee-\JJ	.
=11	=11	=11
8B-/L	16r	.
.	16f/LL	.
8b-/J	16f/ 16a- 16ee-	.
.	16ddn/JJ	.
8B-/L	16r	.
.	16g-/LL	.
8b-/J	16g-/ 16b- 16ff	.
.	16ee-/JJ	.
=12	=12	=12
8B-/L	16r	.
.	16a-\LL	.
8b-/J	16a-\ 16ddn 16gg-	.
.	16ff\JJ	.
*clefF4	*	*
!LO:TX:t=P:problem=mixed beam	!	!
8B-\L	16r	.
.	16ee-\LL	.
8BB-/J	16gg-\ 16aan	.
.	16ee-\JJ	.
=13	=13	=13
!LO:TX:t=P:problem=mixed beam	!	!
8B-\L	16r	.
.	16ddn\LL	.
8BB-/J	16ff\ 16bb-	.
.	16dd\JJ	.
!LO:TX:t=P:problem=mixed beam	!	!
8c-X^>\L	16r	.
.	16e-/LL	.
8BB-/J	16f/ 16an	.
.	16e-/JJ	.
=14	=14	=14
!LO:TX:t=P:problem=mixed beam	!	!
8B-\L	16r	.
.	16dn/LL	.
8BB-/J	16f/ 16b-	.
.	16d/JJ	.
!LO:TX:t=P:problem=mixed beam	!	!
8An^>\L	16r	.
.	16e-/LL 16g-X 16cc-	.
8BB-/J	16ddn/	.
.	16cc-/JJ	.
!!LO:LB:g=original
=15	=15	=15
.	8qdn/	.
!LO:TX:a:t=problem:extended text	!	!LO:HP:t=[diminuendo]:ext=[cd]
!	!LO:TX:a:t=problem:obiegnik pod nutą	!
4BB-\ 4B-	8.b-/LsS	>
.	16ccn/Jk	.
4r	16ddn/LL	.
.	16b-/	.
.	16f/	.
.	16d/JJ	.
=16	=16	=16
!LO:TX:a:t=problem:przekreślony obiegnik pod nutą	!LO:TX:a:t=problem:łuk zaczyna się dopiero pod koniec taktu	!
8.BB-/LsS	[2B-/	.
16Cn/Jk	.	.
16Dn/LL	.	.
16BB-/	.	.
16FF/	.	.
16DDn/JJ	.	.
=17	=17	=17
!LO:N:vis=2.	!	!
(2BBB-/	4B-/]	.
.	[4bb-^\	.
=18	=18	=18
4BB-/)	8bb-\L]	.
.	8aa-\	.
4r	8ff\	.
.	8gg-\J	.
=19	=19	=19
!LO:TUP:a	!LO:TX:b:i:t=espres    ed    agitato	!
24r	8ee-\L	.
(24E-\LL	.	.
24G-\	.	.
24B-\	8b-\J	.
24e-\	.	.
24f\JJ	.	.
!	!LO:TUP:a	!
4g-\)	24r	.
.	(24ee-\LL	.
.	24ff\	.
.	24gg-^<\	.
.	24ff\	.
.	24ee-\JJ)	.
=20	=20	=20
!LO:TUP:a	!LO:TUP:a	!
24r	(24ee-\LL	.
(24F\LL	24ddn\	.
24B-\	24cc-\J)	.
24dn\	[8b-\J	.
24f\	.	.
24g-\JJ)	.	.
!	!LO:TUP:a	!
4a-\	(24b-\LL]	.
.	24ff\	.
.	24gg-\	.
.	24aa-\	.
.	24gg-^\	.
.	24ff\JJ)	.
!!LO:LB:g=original
=21	=21	=21
*Xtuplet	*	*
!	!LO:TUP:a	!
24r	(24ff\LL	.
(24G-\LL	24ddn\	.
24B-\	24ee-\J)	.
24e-\	[8bb-\J	.
24f\	.	.
24g-\JJ)	.	.
*clefG2	*	*
4b-/	32bb-\LLL]	.
.	32aan\	.
.	32bb-\	.
.	32aa\	.
.	32ccc-\	.
.	32bb-\	.
.	32aa-X\	.
.	32gg-\JJJ	.
=22	=22	=22
*	*^	*
4A-/ 4c- 4e- 4f	16gg-/LL	8cc-\	.
.	16ff/JJ	.	.
*	*v	*v	*
.	16qqff/LL	.
.	16qqgg-/	.
.	16qqff/	.
.	16qqee-/	.
.	16qqff/JJ	.
*	*Xtuplet	*
.	24aa-\LL	.
.	24gg-\	.
.	24ff\JJ	.
.	8qqcc-;/	ff
*	*8va	*
!	!	!LO:TX:a:t=8va
4A-;/ 4c- 4e- 4f	4cccc-;\	.
=23-	=23-	=23-
2ryy	44bbb-\LLL	.
.	44aaa-\	.
.	44ggg-\	.
.	44fff\	.
.	44eee-\	.
.	44dddn\	.
.	44ccc-\	.
*	*X8va	*
!	!LO:TX:a:i:t=loco	!
.	44bb-\	.
.	44aa-\	.
.	44gg-\	.
.	44ff\	.
.	44ee-\	.
.	44ddn\	.
.	44cc-\	.
.	44b-\	.
.	44a-\	.
.	44g-\	.
.	44f\	.
.	44e-\	.
.	44dn\	.
.	44c-\	.
.	44B-\JJJ	.
=24-	=24-	=24-
*	*tuplet	*
!	!LO:TUP:b	!
4ryy	(56A-/LLL	.
.	56B-/	.
.	56c-/	.
.	56B-/	.
.	56An/	.
.	56B-/	.
.	56cn/JJJ)	.
!	!LO:TUP:b	!
.	48dn/LLL	.
.	48c/	.
.	48B-/	.
.	48c/	.
.	48d/	.
.	48e-/JJJ	.
!!LO:LB:g=original
=25-	=25-	=25-
*	*Xtuplet	*
4.ryy	48f/LLL	.
.	48e-/	.
.	48dn/	.
.	48e-/	.
.	48f/	.
.	48g-/JJJ	.
.	48a-/LLL	.
.	48g-/	.
.	48f/	.
.	48g-/	.
.	48a-/	.
.	48b-/JJJ	.
!	!LO:TX:b:i:t=rallent	!
.	48dd-'/LLL	.
.	48cc-X'/	.
.	48b-'/	.
.	48a-'/	.
.	48gn'/	.
.	48g-X'/JJJ	.
=26	=26	=26
*clefF4	*	*
*	*^	*
4AA-\ 4A-	24f/LL	4c-\	f
!	!LO:TX:b:i:t=a tempo	!	!
.	24g-/	.	.
.	24f/	.	.
.	24e-/	.	.
.	24f/	.	.
.	24g-/JJ	.	.
*	*v	*v	*
4r	24a-\LL	.
.	24g-\	.
.	24f\	.
.	24a-\	.
.	24.gg-^\	.
.	48ff\JJk	.
=27	=27	=27
8BB-\ 8B-	8g-\ 8b- 8ee-	.
8r	8r	.
8BB-\ 8B-	8f/ 8a- 8ddn	.
8r	8r	.
=28	=28	=28
*	*tuplet	*
!	!LO:TUP:b	!
8E-`\	(24f/LL	pp
.	24g-/	.
.	24b-/	.
8r	24ee-/	.
.	24b-/	.
.	24g-/JJ)	.
*	*Xtuplet	*
8dn`\	24r	.
.	(24e-/LL	.
.	24g-/	.
8r	24b-/	.
.	24g-/	.
.	24e-/JJ)	.
=29	=29	=29
*^	*	*
8An\	4ryy	24r	.
.	.	(24B-/LL	.
.	.	24g-/	.
8r	.	24e-/	.
.	.	24B-/	.
.	.	24G-/JJ)	.
!LO:N:vis=4.	!LO:N:vis=4.	!	!
!LO:TX:b:t=3 0 4 3	!	!	!
4EE-;<\	4E-/;>	4ryy	.
*v	*v	*	*
==	==	==
*-	*-	*-
!!!system-decoration: {(s1,s2)}
!!!RDF**kern: >= above
!!!RDF**kern: <= below
!!!ENC: Anna Matuszewska
!!!END: 2020-07-19
